X:62
T: Erdő, erdő, kerek erdő
O: Szeketura (Bákó), 1929
Q: Parlando
L:1/4
K:C
BBBB | B<d B/ HA2 |
dAB<B | A B A G2 z |
G A B<B | B d A/ G2 |
G>A G<F | E<F E/ HE2 |

